client/build/images/cosuno_logo.svg

<svg width="176" height="40" viewBox="0 0 40 40" fill="none" xmlns="http://www.w3.org/2000/svg">
<path d="M19.8084 3.09668e-06C18.7668 -5.03091e-05 17.8392 -9.799e-05 17.0693 0.0628059C16.2477 0.129934 15.3881 0.280976 14.5491 0.708464C13.3261 1.33164 12.3317 2.32601 11.7085 3.54907C11.281 4.38806 11.13 5.24762 11.0629 6.06923C11 6.83914 11 7.76675 11.0001 8.80831V20.1917C11 21.2333 11 22.1609 11.0629 22.9308C11.13 23.7524 11.281 24.6119 11.7085 25.4509C12.3317 26.674 13.3261 27.6684 14.5491 28.2915C15.3881 28.719 16.2477 28.8701 17.0693 28.9372C17.8392 29.0001 18.7668 29.0001 19.8084 29L21.6 29C21.8209 29 22 28.8209 22 28.6V24.4C22 24.1791 21.8209 24 21.6 24H19.9001C18.7387 24 18.018 23.9981 17.4765 23.9538C16.9675 23.9122 16.8375 23.8459 16.8194 23.8367C16.5372 23.6929 16.3074 23.4632 16.1636 23.181C16.1543 23.1629 16.0878 23.0326 16.0463 22.5236C16.002 21.982 16.0001 21.2614 16.0001 20.1V8.90001C16.0001 7.73865 16.002 7.01799 16.0463 6.47639C16.0878 5.96744 16.1542 5.83742 16.1634 5.81937C16.3072 5.53713 16.5368 5.30731 16.8191 5.1635C16.8371 5.15429 16.9675 5.08778 17.4765 5.0462C18.018 5.00195 18.7387 5.00001 19.9001 5.00001H31.1001C32.2614 5.00001 32.9821 5.00195 33.5237 5.0462C34.0326 5.08778 34.1626 5.15411 34.1807 5.16332C34.4629 5.30713 34.6928 5.53678 34.8366 5.81902C34.8458 5.83707 34.9123 5.96743 34.9539 6.47639C34.9981 7.01799 35.0001 7.73865 35.0001 8.90001V20.1C35.0001 21.2614 34.9981 21.982 34.9539 22.5236C34.9123 23.0326 34.846 23.1626 34.8368 23.1806C34.6929 23.4629 34.4633 23.6927 34.1811 23.8365C34.163 23.8457 34.0326 23.9122 33.5237 23.9538C32.8189 24.0114 32.1079 24.0048 31.4 24.0012C31.1791 24.0001 31 24.1791 31 24.4V28.6C31 28.8209 31.1791 29.0001 31.4 29.0007C32.2439 29.0028 33.0899 29.0059 33.9308 28.9372C34.7524 28.8701 35.612 28.719 36.451 28.2915C37.6741 27.6684 38.6684 26.674 39.2916 25.4509C39.7191 24.6119 39.8701 23.7524 39.9373 22.9308C40.0002 22.1609 40.0001 21.2332 40.0001 20.1917V8.80835C40.0001 7.76677 40.0002 6.83915 39.9373 6.06923C39.8701 5.24762 39.7191 4.38806 39.2916 3.54907C38.6684 2.32601 37.6741 1.33164 36.451 0.708464C35.612 0.280976 34.7524 0.129934 33.9308 0.0628059C33.1609 -9.799e-05 32.2333 -5.03091e-05 31.1918 3.09668e-06H19.8084Z" fill="#fff"/>
<path d="M9 11.4001C9 11.1791 8.82092 11 8.60001 10.9994C7.75615 10.9973 6.91018 10.9942 6.06923 11.0629C5.24762 11.13 4.38806 11.281 3.54907 11.7085C2.32601 12.3317 1.33164 13.3261 0.708464 14.5491C0.280976 15.3881 0.129934 16.2477 0.0628059 17.0693C-9.799e-05 17.8392 -5.03091e-05 18.7668 3.09668e-06 19.8084V31.1918C-5.03091e-05 32.2333 -9.799e-05 33.1609 0.0628059 33.9308C0.129934 34.7524 0.280976 35.612 0.708464 36.451C1.33164 37.6741 2.32601 38.6684 3.54907 39.2916C4.38806 39.7191 5.24762 39.8701 6.06923 39.9373C6.83915 40.0002 7.76677 40.0001 8.80835 40.0001H20.1917C21.2332 40.0001 22.1609 40.0002 22.9308 39.9373C23.7524 39.8701 24.6119 39.7191 25.4509 39.2916C26.674 38.6684 27.6684 37.6741 28.2915 36.451C28.719 35.612 28.8701 34.7524 28.9372 33.9308C29.0001 33.1609 29.0001 32.2333 29 31.1917V19.8084C29.0001 18.7668 29.0001 17.8392 28.9372 17.0693C28.8701 16.2477 28.719 15.3881 28.2915 14.5491C27.6684 13.3261 26.674 12.3317 25.4509 11.7085C24.6119 11.281 23.7524 11.13 22.9308 11.0629C22.1609 11 21.2333 11 20.1917 11.0001L18.4 11.0001C18.1791 11.0001 18 11.1792 18 11.4001V15.6001C18 15.821 18.1791 16.0001 18.4 16.0001H20.1C21.2614 16.0001 21.982 16.002 22.5236 16.0463C23.0326 16.0878 23.1626 16.1542 23.1806 16.1634C23.4629 16.3072 23.6927 16.5368 23.8365 16.8191C23.8457 16.8371 23.9122 16.9675 23.9538 17.4765C23.9981 18.018 24 18.7387 24 19.9001V31.1001C24 32.2614 23.9981 32.9821 23.9538 33.5237C23.9122 34.0326 23.8459 34.1626 23.8367 34.1807C23.6929 34.4629 23.4632 34.6928 23.181 34.8366C23.1629 34.8458 23.0326 34.9123 22.5236 34.9539C21.982 34.9981 21.2614 35.0001 20.1 35.0001H8.90001C7.73865 35.0001 7.01799 34.9981 6.47639 34.9539C5.96744 34.9123 5.83742 34.846 5.81937 34.8368C5.53713 34.6929 5.30731 34.4633 5.1635 34.1811C5.15429 34.163 5.08778 34.0326 5.0462 33.5237C5.00195 32.9821 5.00001 32.2614 5.00001 31.1001V19.9001C5.00001 18.7387 5.00195 18.018 5.0462 17.4765C5.08778 16.9675 5.15411 16.8375 5.16332 16.8194C5.30713 16.5372 5.53678 16.3074 5.81902 16.1636C5.83707 16.1544 5.96744 16.0878 6.47639 16.0463C7.18119 15.9887 7.89213 15.9953 8.6 15.9988C8.82091 15.9999 9 15.821 9 15.6001V11.4001Z" fill="#fff"/>
</svg>

<svg width="176" height="40" viewBox="0 0 40 40" fill="none" xmlns="http://www.w3.org/2000/svg"><path d="M19.808 0c-1.041 0-1.969 0-2.739.063-.821.067-1.68.218-2.52.645a6.5 6.5 0 0 0-2.84 2.841c-.428.84-.579 1.699-.646 2.52C11 6.84 11 7.767 11 8.81v11.383c0 1.041 0 1.969.063 2.739.067.821.218 1.68.646 2.52a6.5 6.5 0 0 0 2.84 2.84c.84.428 1.699.58 2.52.646.77.063 1.698.063 2.74.063H21.6a.4.4 0 0 0 .4-.4v-4.2a.4.4 0 0 0-.4-.4h-1.7c-1.161 0-1.882-.002-2.423-.046-.51-.042-.64-.108-.658-.117a1.501 1.501 0 0 1-.655-.656c-.01-.018-.076-.148-.118-.657C16.002 21.982 16 21.26 16 20.1V8.9c0-1.161.002-1.882.046-2.424.042-.509.108-.639.117-.657a1.5 1.5 0 0 1 .656-.655c.018-.01.149-.076.658-.118C18.018 5.002 18.739 5 19.9 5h11.2c1.161 0 1.882.002 2.424.046.509.042.639.108.657.117.282.144.512.374.656.656.009.018.075.148.117.657.044.542.046 1.263.046 2.424v11.2c0 1.161-.002 1.882-.046 2.424-.042.509-.108.639-.117.657a1.502 1.502 0 0 1-.656.655c-.018.01-.148.076-.657.118-.705.057-1.416.05-2.124.047a.398.398 0 0 0-.4.399v4.2c0 .22.18.4.4.4.844.003 1.69.006 2.53-.063.822-.067 1.682-.218 2.521-.646a6.5 6.5 0 0 0 2.84-2.84c.428-.84.58-1.699.646-2.52.063-.77.063-1.698.063-2.74V8.809c0-1.041 0-1.969-.063-2.739-.067-.821-.218-1.68-.645-2.52A6.5 6.5 0 0 0 36.45.71c-.839-.428-1.699-.58-2.52-.646C33.16 0 32.233 0 31.19 0H19.809Z" fill="#fff"/><path d="M9 11.4a.4.4 0 0 0-.4-.4c-.844-.003-1.69-.006-2.53.063-.822.067-1.682.218-2.52.646a6.5 6.5 0 0 0-2.842 2.84c-.427.84-.578 1.699-.645 2.52C0 17.84 0 18.767 0 19.81v11.383c0 1.041 0 1.969.063 2.739.067.821.218 1.681.645 2.52a6.5 6.5 0 0 0 2.841 2.84c.84.428 1.699.58 2.52.646C6.84 40 7.767 40 8.81 40h11.383c1.041 0 1.969 0 2.739-.063.821-.067 1.68-.218 2.52-.645a6.5 6.5 0 0 0 2.84-2.841c.428-.839.58-1.699.646-2.52.063-.77.063-1.698.063-2.74V19.809c0-1.041 0-1.969-.063-2.739-.067-.821-.218-1.68-.646-2.52a6.5 6.5 0 0 0-2.84-2.84c-.84-.428-1.699-.579-2.52-.646C22.16 11 21.233 11 20.19 11H18.4a.4.4 0 0 0-.4.4v4.2c0 .221.18.4.4.4h1.7c1.161 0 1.882.002 2.424.046.509.042.639.108.657.117a1.5 1.5 0 0 1 .655.656c.01.018.076.149.118.658.044.541.046 1.262.046 2.423v11.2c0 1.161-.002 1.882-.046 2.424-.042.509-.108.639-.117.657a1.502 1.502 0 0 1-.656.656c-.018.009-.148.075-.657.117-.542.044-1.263.046-2.424.046H8.9c-1.161 0-1.882-.002-2.424-.046-.509-.042-.639-.108-.657-.117a1.502 1.502 0 0 1-.655-.656c-.01-.018-.076-.148-.118-.657C5.002 32.982 5 32.26 5 31.1V19.9c0-1.161.002-1.882.046-2.423.042-.51.108-.64.117-.658.144-.282.374-.512.656-.655.018-.01.148-.076.657-.118.705-.057 1.416-.05 2.124-.047.22 0 .4-.178.4-.399v-4.2Z" fill="#fff"/></svg>
